X: 22770
T: Långdans Från Sollerön
R: waltz
M: 3/4
K: Dminor
|:AG [A2E2] [AF][GA]|A^c ec [d2D2]|F2 DE FG|F2 B2 AG|
F2 [A2E2] [A2F2]|B2 A^c [d2D2]|F2 D2 B2|AG FE [A2D2]:|
|:.[f2A2] .[e2A2] .^c2|A^c ec d2|DE F2 B2-|B2 A^c [d2D2]|[B2D2] [A2D2] [A-G][AE]|[A4F4][A2D2]:|

